X: 26429
T: Merry Sisters, The
R: reel
M: 4/4
K: Edorian
BE E2 BdcA|BE E2 dA (3FGA|BE E2 BdcA|FD D2 ADFA|
BE E2 dE E2|BE E2 dA (3FGA|BE E2 BdcA|FD D2 ADFA||
Beec d2 cd|Beed BA (3FGA|Beec d2 (3Bcd|BdAB dAFD|
Beec d2 cd|(3Bcd ef gfed|Beec d2 cd|BdAB dAFD||
Bdcd BdAd|BE E2 BE (3FGA|Bdcd BdAG|FD D2 ADFA|
Bdcd BdAd|BE E2 BEFE|AD (3FGA d3e|(3fed (3edc d2 cd||

